X:680
T: Casserly Sisters
S: "Passing Time" (Jim & Mary Coogan & friends)
C: M.Coogan
L: 1/8
M: 4/4
Q: 350
R: reel
K: Dm
dcAG FGAB | c2 ec gcec | dcAG FGAB | cAGE FD D2 |
dcAG FGAB | c2 ec gcec | DFAc dcAG | FDEC D4 :|
A,DFD B,DFA | GE E2 BAGE | A,DFD B,DFB | AGFE FEDC |
A,DFD B,DFA | GE E2 BAGE | A,DFA dcAF | DFEC D4 :|
